assets/svg/icon_2fa_emailauth.svg

<svg width="36" height="36" viewBox="0 0 36 36" fill="none" xmlns="http://www.w3.org/2000/svg">
<path d="M15 33.0003H21C26.6568 33.0003 29.4853 33.0003 31.2426 31.2429C33 29.4856 33 26.6572 33 21.0003C33 15.3435 33 12.515 31.2426 10.7577C30.6987 10.2138 30.0514 9.8382 29.2494 9.57887C29.2501 9.83315 29.25 10.0932 29.25 10.3578L29.25 13.5949C29.25 13.6389 29.2504 13.6869 29.2509 13.7384C29.2553 14.2491 29.2628 15.105 28.896 15.8881C28.5292 16.6711 27.8669 17.2134 27.4718 17.5369C27.4323 17.5692 27.3945 17.6001 27.361 17.6281L25.1012 19.5112C23.8101 20.5873 22.6862 21.524 21.6758 22.1738C20.5867 22.8743 19.4086 23.3923 18 23.3923C16.5914 23.3923 15.4133 22.8743 14.3242 22.1738C13.3138 21.524 12.1899 20.5873 10.8988 19.5112L8.63905 17.6281C8.60522 17.5999 8.5681 17.5695 8.52827 17.5369C8.13311 17.2134 7.47084 16.6711 7.10406 15.8881C6.73728 15.105 6.74472 14.2491 6.74915 13.7384C6.7496 13.6869 6.75002 13.6389 6.75002 13.5949L6.75001 10.3577C6.74999 10.0929 6.74997 9.83292 6.75061 9.57834C5.94865 9.83768 5.30163 10.2134 4.75736 10.7577C3 12.515 3 15.3435 3 21.0003C3 26.6572 3 29.4856 4.75736 31.2429C6.51472 33.0003 9.34315 33.0003 15 33.0003Z" fill="white"/>
<path fill-rule="evenodd" clip-rule="evenodd" d="M10.0796 15.8995L12.2385 17.6986C14.9934 19.9944 16.3709 21.1423 18.0001 21.1423C19.6294 21.1423 21.0068 19.9944 23.7618 17.6986L25.9207 15.8995C26.4515 15.4572 26.7169 15.236 26.8585 14.9337C27.0001 14.6313 27.0001 14.2858 27.0001 13.5949V10.5C27.0001 10.0191 27.0001 9.57082 26.9974 9.15253C26.9798 6.49591 26.8507 5.04729 25.9018 4.09835C24.8034 3 23.0357 3 19.5001 3H16.5001C12.9646 3 11.1968 3 10.0985 4.09835C9.14954 5.04729 9.01769 6.49591 9.00013 9.15253C8.99737 9.57082 9.00013 10.0191 9.00013 10.5V13.5949C9.00013 14.2858 9.00013 14.6313 9.14174 14.9337C9.28336 15.236 9.54877 15.4572 10.0796 15.8995ZM13.875 9C13.875 8.37868 14.3787 7.875 15 7.875H21C21.6213 7.875 22.125 8.37868 22.125 9C22.125 9.62132 21.6213 10.125 21 10.125H15C14.3787 10.125 13.875 9.62132 13.875 9ZM15.375 13.5C15.375 12.8787 15.8787 12.375 16.5 12.375H19.5C20.1213 12.375 20.625 12.8787 20.625 13.5C20.625 14.1213 20.1213 14.625 19.5 14.625H16.5C15.8787 14.625 15.375 14.1213 15.375 13.5Z" fill="white"/>
</svg>

<svg xmlns="http://www.w3.org/2000/svg" width="36" height="36" fill="none"><path fill="#fff" d="M15 33h6c5.657 0 8.485 0 10.243-1.757C33 29.486 33 26.657 33 21c0-5.656 0-8.485-1.757-10.242-.544-.544-1.192-.92-1.994-1.18l.001.78v3.38c.005.511.013 1.367-.354 2.15s-1.03 1.325-1.424 1.649l-.111.091-2.26 1.883c-1.29 1.076-2.415 2.013-3.425 2.663-1.09.7-2.267 1.218-3.676 1.218s-2.587-.518-3.676-1.218c-1.01-.65-2.134-1.587-3.425-2.663l-2.26-1.883-.11-.091c-.396-.324-1.058-.866-1.425-1.649s-.36-1.639-.355-2.15l.001-.143V9.578c-.801.26-1.448.635-1.993 1.18C3 12.515 3 15.344 3 21s0 8.486 1.757 10.243C6.515 33 9.343 33 15 33"/><path fill="#fff" fill-rule="evenodd" d="m10.08 15.9 2.159 1.799c2.754 2.295 4.132 3.443 5.761 3.443s3.007-1.148 5.762-3.443l2.159-1.8c.53-.442.796-.663.938-.965.141-.303.141-.648.141-1.34V10.5q0-.72-.003-1.347c-.017-2.657-.146-4.106-1.095-5.055C24.803 3 23.036 3 19.5 3h-3c-3.535 0-5.303 0-6.401 1.098-.95.95-1.081 2.398-1.099 5.055-.003.418 0 .866 0 1.347v3.095c0 .69 0 1.036.142 1.339.141.302.407.523.938.966M13.875 9c0-.621.504-1.125 1.125-1.125h6a1.125 1.125 0 0 1 0 2.25h-6A1.125 1.125 0 0 1 13.875 9m1.5 4.5c0-.621.504-1.125 1.125-1.125h3a1.125 1.125 0 0 1 0 2.25h-3a1.125 1.125 0 0 1-1.125-1.125" clip-rule="evenodd"/></svg>
